assets/features/channel/other/Aman.svg

<svg width="80" height="80" viewBox="0 0 80 80" fill="none" xmlns="http://www.w3.org/2000/svg">
<rect width="80" height="80" rx="8" fill="#00AAC1"/>
<path d="M8 62.7877V17.967C8.08401 15.6319 9.19296 13.9016 11.0748 12.5745C11.9821 11.9361 13.0407 11.8857 14.0488 11.6001H65.7831C66.5224 11.8521 67.329 11.7345 68.0347 12.1209C70.1181 13.2296 71.664 14.7416 71.8824 17.2615C71.8992 17.4967 71.832 17.7655 72 17.9838V62.6197C71.7312 63.8292 71.7816 65.1228 70.8742 66.1475C70.303 66.7859 69.7317 67.4579 69.0092 67.9451C68.2027 68.4994 67.3458 68.7682 66.3376 68.7682C48.964 68.7514 31.6072 68.7178 14.2505 68.785C11.9653 68.785 10.4699 67.7603 9.12575 66.1475C8.30244 65.1564 8.23523 63.9636 8 62.7877Z" fill="#00AAC1"/>
<path d="M47.7878 46.1732C47.8382 46.9292 47.5525 47.198 46.7292 47.1812C43.604 47.114 40.462 47.1476 37.3199 47.1644C36.4798 47.1644 35.6397 47.0804 34.8332 46.862C32.5145 46.2572 31.1031 44.6445 31.0023 42.2422C30.9015 39.9743 30.9519 37.7064 30.9519 35.4385C30.9519 32.045 30.9687 28.6683 30.9351 25.2749C30.9351 24.6029 31.1367 24.4013 31.792 24.4517C32.5649 24.5021 33.3546 24.5021 34.1443 24.4517C34.8164 24.4013 34.9844 24.6533 34.9676 25.2917C34.9508 30.0795 34.9676 34.8673 34.9676 39.6383C34.9676 42.6454 35.4213 43.099 38.4121 43.099C39.7563 43.099 41.1005 43.099 42.4446 43.099C43.8392 43.099 43.6376 43.2837 43.6712 41.923C43.7216 40.3607 43.772 38.7983 44.3601 37.3032C45.5027 34.4305 47.9894 32.969 51.1818 33.3049C54.4247 33.6577 56.7098 35.6904 57.2139 38.6807C57.8356 42.4102 56.3065 45.4677 53.2149 46.6772C52.2908 47.03 51.3163 47.1308 50.3417 47.1812C50.0729 47.3324 49.8713 47.1812 49.636 47.0636C49.0648 46.7444 48.6279 46.274 48.191 45.8036C47.7206 45.3165 47.8886 44.7285 48.275 44.2917C48.9303 43.5525 49.6192 42.8302 50.7282 42.6958C52.0892 42.5278 52.6941 41.8894 52.7949 40.7806C52.9293 39.1007 52.4924 38.2271 51.3331 37.8408C50.1737 37.4544 48.3591 37.9416 48.2414 39.9407C48.191 40.915 48.2414 41.8894 48.2246 42.8806C48.2246 43.5693 48.3086 44.2749 47.9726 44.9469C47.771 45.3333 48.3423 45.8372 47.8214 46.19L47.7878 46.1732Z" fill="#FDFEFE"/>
<path d="M26.5497 37.0005C26.5497 38.1765 26.6001 39.3524 26.3985 40.5116C25.5752 45.0978 21.9123 47.6513 17.1404 47.0969C9.52896 46.2065 8.58803 38.5124 11.31 34.1614C11.6124 33.691 11.8309 33.7246 12.2173 34.027C12.9062 34.5646 13.5951 35.0686 14.3344 35.539C14.7545 35.8078 14.8049 36.0429 14.5697 36.4965C13.9144 37.8069 13.8304 39.1844 14.3008 40.5788C14.9057 42.3427 16.6867 43.3339 18.7534 43.0819C21.0049 42.8131 22.3323 41.6203 22.4667 39.5708C22.5676 37.8405 22.5339 36.1101 22.5003 34.363C22.5003 33.691 22.6516 33.4054 23.3741 33.4558C24.231 33.523 25.1047 33.4894 25.9784 33.4558C26.4153 33.4558 26.5665 33.6238 26.5665 34.0438C26.5497 35.0182 26.5665 36.0093 26.5665 36.9837L26.5497 37.0005Z" fill="#FEFEFE"/>
<path d="M65.2958 37.7228C65.2958 40.5954 65.279 43.4849 65.2958 46.3576C65.2958 46.996 65.1278 47.1808 64.5061 47.1472C63.666 47.0968 62.8259 47.0968 61.9858 47.1472C61.4313 47.1808 61.2464 46.9792 61.2632 46.4416C61.2968 44.9801 61.2632 43.5353 61.2632 42.0738C61.2632 37.7396 61.28 33.4053 61.2632 29.0711C61.2632 28.3319 61.4649 28.0799 62.2042 28.1471C62.9771 28.2143 63.7668 28.1975 64.5565 28.1471C65.1614 28.1135 65.2958 28.3487 65.2958 28.9199C65.279 31.8598 65.2958 34.7997 65.2958 37.7228Z" fill="#FEFEFE"/>
<path d="M63.1787 26.6689C62.137 26.6689 61.112 26.6353 60.0703 26.6689C59.4654 26.7025 59.2806 26.4841 59.3478 25.9129C59.3814 25.6106 59.3646 25.2914 59.3478 24.989C59.3142 24.6026 59.4318 24.3842 59.8519 24.4514C60.5576 24.569 60.4399 24.149 60.3727 23.6954C60.1375 22.1499 60.5408 20.8395 61.9017 19.9828C63.2963 19.1092 64.7581 19.1596 66.2031 19.9492C66.8416 20.302 67.1273 20.7219 66.4888 21.3603C66.3375 21.5115 66.2199 21.7131 66.1023 21.8979C65.8503 22.3179 65.6487 22.5027 65.1782 22.0323C64.6069 21.4611 63.8508 21.4611 63.1619 21.8475C62.6578 22.1331 62.4562 22.6203 62.5402 23.2082C62.6242 23.8466 63.0107 24.1994 63.6156 24.3506C64.4725 24.5522 65.3462 24.4514 66.2031 24.4346C66.808 24.4346 67.0432 24.569 67.0264 25.2242C66.9592 27.0049 67.1777 26.6185 65.615 26.6521C64.8085 26.6689 63.9852 26.6521 63.1787 26.6521V26.6689Z" fill="#FEFEFE"/>
<path d="M21.7107 55.0597C18.7199 55.0597 15.7291 55.0597 12.7383 55.0597C12.3518 55.0597 12.2342 55.1101 12.167 55.5133C11.9822 56.5885 11.4277 57.0925 10.5372 57.1093C10.3019 57.1093 9.96589 57.1933 10.0331 56.7733C10.0667 56.5213 9.81467 56.1013 10.3187 56.0509C10.9572 55.9837 11.058 55.5301 11.058 55.0261C11.058 54.1022 11.0748 53.1782 11.058 52.2542C11.058 51.7671 11.2597 51.6495 11.7133 51.6327C12.2006 51.6327 12.251 51.8847 12.2342 52.2542C12.167 54.3206 12.2846 54.0518 14.1329 54.0686C17.5101 54.0686 20.9042 54.0686 24.2815 54.0686C24.5503 54.0686 24.9704 54.2534 25.088 53.9006C25.2224 53.5142 24.9872 53.1446 24.6847 52.859C24.2647 52.4558 23.7606 52.5566 23.2565 52.5902C23.0045 52.607 22.6684 52.7918 22.6516 52.3046C22.6516 51.9519 22.6516 51.6663 23.0885 51.5487C24.6679 51.0951 25.9785 51.8679 26.2641 53.4974C26.3481 53.951 26.4826 54.119 26.953 54.1022C27.8436 54.0686 28.7509 54.0686 29.6414 54.1022C30.1791 54.119 30.3303 53.9006 30.2967 53.4134C30.2631 53.0438 30.2967 52.691 30.2967 52.3214C30.2631 51.8847 30.3975 51.6663 30.9016 51.6495C31.4056 51.6495 31.5233 51.8511 31.5065 52.3046C31.4729 53.0102 31.4729 53.699 31.5065 54.4046C31.5401 54.9757 31.3216 55.1101 30.784 55.1101C27.7595 55.0933 24.7519 55.1101 21.7275 55.1101L21.7107 55.0597Z" fill="#FCFDFD"/>
<path d="M47.7878 46.1731C47.7878 44.0732 47.7038 41.9901 47.7878 39.8902C47.8718 37.9247 49.6361 36.8327 51.5011 37.4543C52.8117 37.8911 53.383 39.067 53.1814 40.8813C53.047 42.1917 52.2236 42.998 50.7786 43.082C49.4681 43.166 48.9304 44.3084 48.0231 44.9468C47.8382 45.0812 48.0231 45.2492 48.1407 45.35C48.88 45.9379 49.5185 46.6603 50.325 47.1643C50.1402 47.6683 49.8377 47.5339 49.4513 47.3659C48.796 47.0803 48.4263 46.4419 47.7878 46.1395V46.1731Z" fill="#00AAC1"/>
<path d="M39.1514 54.1025C39.1346 54.5225 39.1514 54.9425 39.0842 55.3625C38.8994 56.5384 37.4376 57.4288 36.3287 57.0928C36.0094 56.992 36.0766 56.7736 36.0766 56.5552C36.0766 56.3032 36.043 56.0344 36.4295 56.0176C36.8327 56.0176 37.2192 55.9504 37.5384 55.6984C37.6896 55.5808 37.8745 55.4464 37.8241 55.2281C37.7569 54.9593 37.5048 55.0769 37.3368 55.0601C36.1606 54.9425 35.623 54.3545 35.6902 53.1953C35.7574 52.053 36.4799 51.3978 37.5888 51.4314C38.3953 51.465 38.9498 51.9354 39.0674 52.7418C39.1346 53.1785 39.1178 53.6321 39.1346 54.0857L39.1514 54.1025Z" fill="#FDFEFE"/>
<path d="M15.0234 30.5498C16.4348 29.5082 17.8294 28.4667 19.3416 27.3579V34.0944C19.0055 34.0944 18.7871 33.8257 18.5519 33.6073C18.0814 33.0529 18.1822 32.3641 18.1654 31.7257C18.1654 31.4233 18.199 31.121 18.1318 30.8186C18.0142 30.1634 17.611 30.1298 17.0901 30.3986C16.7036 30.6002 16.2836 30.7178 15.8635 30.8354C15.5275 30.9362 15.225 30.9026 15.0066 30.5666L15.0234 30.5498Z" fill="#EB6C23"/>
<path d="M34.1949 52.0358C34.1949 52.8422 34.1949 53.6485 34.1949 54.4717C34.1949 54.8917 34.0773 55.0765 33.6236 55.0765C33.1531 55.0765 32.9851 54.9253 32.9851 54.4549C33.0019 52.859 33.0019 51.2798 32.9851 49.6839C32.9851 49.1799 33.2035 49.0791 33.6404 49.0791C34.1109 49.0791 34.1949 49.2975 34.1949 49.7007C34.1781 50.4734 34.1949 51.263 34.1949 52.0526V52.0358Z" fill="#F3FAFB"/>
<path d="M17.0735 30.0459C18.3673 29.4916 18.5857 29.626 18.5857 31.0035C18.5857 31.8603 18.5857 32.7338 18.5857 33.5906C18.132 33.389 17.7456 33.1034 17.4095 32.7338C16.8383 31.8939 17.0063 30.9531 17.0903 30.0291L17.0735 30.0459Z" fill="#DD5620"/>
<path d="M65.1111 54.5393H40.5293C40.5293 54.5057 40.5293 54.4721 40.5293 54.4385H65.1447C65.1447 54.4721 65.1279 54.5057 65.1111 54.5393Z" fill="#F2FAFB"/>
<path d="M17.0734 30.0459C17.6279 30.4995 17.3423 31.1211 17.3927 31.6754C17.4263 32.0282 17.3927 32.3978 17.3927 32.7506C16.603 32.1962 15.8133 31.6586 15.0067 31.1211C14.7211 30.9195 14.5867 30.7347 15.0067 30.5499C15.7292 30.5499 16.3509 30.1803 17.0398 30.0459H17.0734Z" fill="#C93E1E"/>
<path d="M32.6656 56.8909C33.0352 56.5381 32.7832 55.7989 33.4385 55.5637C33.6905 55.4797 33.9594 55.4293 34.1274 55.6645C34.2786 55.8997 34.1946 56.0845 33.8922 56.2357C33.4553 56.4373 33.7409 56.6053 34.0098 56.6725C34.2114 56.7229 34.3962 56.7733 34.3626 57.0253C34.329 57.3612 34.0602 57.294 33.8585 57.3108C33.5729 57.3108 33.3041 57.3108 33.0184 57.3108C32.8 57.3108 32.6488 57.21 32.6656 56.9077V56.8909Z" fill="#E8F7F9"/>
<path d="M11.3102 32.8008C11.2598 33.2376 11.0078 33.5063 10.6045 33.5231C10.1677 33.5567 9.91565 33.2544 9.89885 32.8512C9.88205 32.4648 10.1005 32.1288 10.5373 32.112C10.991 32.0952 11.243 32.3976 11.327 32.8008H11.3102Z" fill="#64CBD9"/>
<path d="M30.8511 49.5158C31.2544 49.5494 31.5064 49.7678 31.5064 50.1374C31.5064 50.4566 31.3216 50.7254 30.9519 50.7422C30.5655 50.759 30.3135 50.5742 30.2799 50.171C30.2463 49.7678 30.4983 49.583 30.8679 49.499L30.8511 49.5158Z" fill="#F1FAFB"/>
<path d="M11.5956 50.7427C11.226 50.7091 11.0075 50.4907 11.0243 50.0875C11.0579 49.6843 11.31 49.4827 11.6964 49.5163C12.0493 49.5331 12.2509 49.7851 12.2509 50.1211C12.2509 50.5075 12.0325 50.7427 11.5956 50.7427Z" fill="#EFF9FA"/>
<path d="M24.7351 56.5218C24.6847 56.9082 24.4663 57.1098 24.063 57.093C23.6934 57.0762 23.5085 56.8242 23.5085 56.505C23.5085 56.1354 23.727 55.8834 24.1302 55.9002C24.5503 55.9002 24.7015 56.169 24.7183 56.5386L24.7351 56.5218Z" fill="#F7FCFC"/>
<path d="M36.8159 53.3129C36.8663 52.9097 36.8999 52.4897 37.3872 52.4897C37.9753 52.4897 37.9753 52.9769 38.0089 53.3969C38.0425 53.7665 37.9753 54.0689 37.488 54.0521C36.9671 54.0521 36.8495 53.6825 36.8159 53.2961V53.3129Z" fill="#18B2C7"/>
</svg>

<svg xmlns="http://www.w3.org/2000/svg" width="80" height="80" fill="none" viewBox="0 0 80 80"><rect width="80" height="80" fill="#00aac1" rx="8"/><path fill="#00aac1" d="M8 62.788V17.967c.084-2.335 1.193-4.065 3.075-5.392.907-.639 1.966-.69 2.974-.975h51.734c.74.252 1.546.135 2.252.52 2.083 1.11 3.629 2.622 3.847 5.142.017.235-.05.503.118.722V62.62c-.269 1.21-.218 2.503-1.126 3.527-.571.639-1.142 1.31-1.865 1.798a4.53 4.53 0 0 1-2.671.823c-17.374-.017-34.73-.05-52.087.017-2.286 0-3.781-1.025-5.125-2.638-.824-.99-.89-2.183-1.126-3.36"/><path fill="#fdfefe" d="M47.788 46.173c.05.756-.235 1.025-1.059 1.008-3.125-.067-6.267-.033-9.41-.017-.84 0-1.68-.084-2.486-.302-2.318-.605-3.73-2.218-3.83-4.62-.102-2.268-.051-4.536-.051-6.803 0-3.394.017-6.77-.017-10.164 0-.672.202-.874.857-.823.773.05 1.563.05 2.352 0 .672-.05.84.201.824.84-.017 4.787 0 9.575 0 14.346 0 3.007.453 3.461 3.444 3.461h4.033c1.394 0 1.193.185 1.226-1.176.05-1.562.101-3.125.69-4.62 1.142-2.872 3.628-4.334 6.82-3.998 3.244.353 5.529 2.385 6.033 5.376.622 3.73-.907 6.787-4 7.996-.923.353-1.898.454-2.872.504-.27.151-.47 0-.706-.117-.571-.32-1.008-.79-1.445-1.26-.47-.488-.302-1.076.084-1.512.655-.74 1.344-1.462 2.453-1.596 1.361-.168 1.966-.807 2.067-1.915.134-1.68-.303-2.554-1.462-2.94s-2.974.1-3.092 2.1c-.05.974 0 1.948-.016 2.94 0 .688.084 1.394-.252 2.066-.202.386.37.89-.152 1.243z"/><path fill="#fefefe" d="M26.55 37c0 1.176.05 2.352-.152 3.512-.823 4.586-4.486 7.14-9.258 6.585-7.611-.89-8.552-8.585-5.83-12.936.302-.47.52-.436.907-.134a27 27 0 0 0 2.117 1.512c.42.269.47.504.236.957-.656 1.31-.74 2.688-.27 4.083.606 1.764 2.387 2.755 4.453 2.503 2.252-.269 3.58-1.462 3.714-3.511.1-1.73.067-3.46.033-5.208 0-.672.152-.958.874-.907.857.067 1.73.033 2.604 0 .437 0 .588.168.588.588-.016.974 0 1.965 0 2.94zm38.746.723c0 2.872-.017 5.762 0 8.635 0 .638-.168.823-.79.79q-1.26-.077-2.52 0c-.555.033-.74-.169-.723-.706.034-1.462 0-2.907 0-4.368 0-4.334.017-8.669 0-13.003 0-.74.202-.991.941-.924.773.067 1.563.05 2.352 0 .605-.034.74.202.74.773-.017 2.94 0 5.88 0 8.803m-2.117-11.054c-1.042 0-2.067-.034-3.109 0-.605.034-.79-.185-.722-.756a6 6 0 0 0 0-.924c-.034-.386.084-.605.504-.538.706.118.588-.302.52-.756-.234-1.545.169-2.855 1.53-3.712 1.394-.874 2.856-.823 4.301-.034.639.353.924.773.286 1.411-.151.152-.27.353-.387.538-.252.42-.453.605-.924.134-.571-.57-1.327-.57-2.016-.184-.504.285-.706.772-.622 1.36.084.639.47.991 1.076 1.143.856.201 1.73.1 2.587.084.605 0 .84.134.823.79-.067 1.78.152 1.393-1.411 1.427-.806.017-1.63 0-2.436 0z"/><path fill="#fcfdfd" d="M21.71 55.06h-8.972c-.386 0-.504.05-.571.453-.185 1.076-.74 1.58-1.63 1.596-.235 0-.571.084-.504-.336.034-.252-.218-.672.286-.722.638-.067.739-.52.739-1.025 0-.924.017-1.848 0-2.772 0-.487.202-.604.655-.621.488 0 .538.252.521.621-.067 2.067.05 1.798 1.899 1.815h10.149c.268 0 .688.184.806-.168.134-.387-.1-.756-.403-1.042-.42-.403-.924-.302-1.428-.269-.253.017-.589.202-.605-.285 0-.353 0-.639.436-.756 1.58-.454 2.89.319 3.176 1.948.084.454.219.622.689.605.89-.033 1.798-.033 2.688 0 .538.017.69-.201.656-.689-.034-.37 0-.722 0-1.092-.034-.436.1-.655.605-.671.504 0 .621.201.604.655a22 22 0 0 0 0 2.1c.034.57-.184.705-.722.705-3.024-.017-6.032 0-9.056 0z"/><path fill="#00aac1" d="M47.788 46.173c0-2.1-.084-4.183 0-6.283.084-1.965 1.848-3.057 3.713-2.436 1.31.437 1.882 1.613 1.68 3.427-.134 1.31-.957 2.117-2.402 2.201-1.31.084-1.849 1.226-2.756 1.865-.185.134 0 .302.118.403.739.588 1.378 1.31 2.184 1.814-.185.504-.487.37-.874.202-.655-.286-1.025-.924-1.663-1.227z"/><path fill="#fdfefe" d="M39.151 54.103c-.016.42 0 .84-.067 1.26-.185 1.175-1.646 2.066-2.755 1.73-.32-.101-.252-.32-.252-.538 0-.252-.034-.52.352-.537.404 0 .79-.068 1.11-.32.15-.117.335-.252.285-.47-.067-.269-.32-.151-.487-.168-1.176-.117-1.714-.706-1.647-1.865.067-1.142.79-1.797 1.899-1.764.806.034 1.36.504 1.478 1.31.068.438.05.891.068 1.345z"/><path fill="#eb6c23" d="M15.023 30.55c1.412-1.042 2.806-2.083 4.319-3.192v6.736c-.336 0-.555-.268-.79-.487-.47-.554-.37-1.243-.387-1.881 0-.303.034-.605-.033-.907-.118-.656-.521-.69-1.042-.42-.386.201-.806.319-1.226.436-.337.101-.639.068-.857-.268z"/><path fill="#f3fafb" d="M34.195 52.036v2.436c0 .42-.118.605-.571.605-.47 0-.639-.152-.639-.622.017-1.596.017-3.175 0-4.771 0-.504.218-.605.655-.605.47 0 .555.218.555.622-.017.772 0 1.562 0 2.352z"/><path fill="#dd5620" d="M17.074 30.046c1.293-.554 1.512-.42 1.512.957v2.588a3.5 3.5 0 0 1-1.176-.857c-.572-.84-.404-1.78-.32-2.705z"/><path fill="#f2fafb" d="M65.111 54.54H40.53v-.102h24.616a.2.2 0 0 1-.034.101"/><path fill="#c93e1e" d="M17.073 30.046c.555.454.27 1.075.32 1.63.033.352 0 .722 0 1.075-.79-.555-1.58-1.092-2.386-1.63-.286-.201-.42-.386 0-.571.722 0 1.344-.37 2.033-.504z"/><path fill="#e8f7f9" d="M32.666 56.89c.37-.352.117-1.091.773-1.326.252-.084.52-.135.688.1.152.236.068.42-.235.572-.437.201-.151.37.118.437.201.05.386.1.353.352-.034.336-.303.269-.505.286h-.84c-.218 0-.37-.101-.352-.403z"/><path fill="#64cbd9" d="M11.31 32.8c-.05.438-.302.706-.706.723-.436.034-.688-.269-.705-.672-.017-.386.202-.722.638-.739.454-.017.706.286.79.689z"/><path fill="#f1fafb" d="M30.851 49.516c.403.033.655.252.655.621 0 .32-.184.588-.554.605-.387.017-.639-.168-.672-.571s.218-.588.588-.672z"/><path fill="#eff9fa" d="M11.596 50.743c-.37-.034-.588-.252-.572-.656.034-.403.286-.604.672-.57.353.016.555.268.555.604 0 .386-.218.622-.655.622"/><path fill="#f7fcfc" d="M24.735 56.522c-.05.386-.269.588-.672.571-.37-.017-.554-.269-.554-.588 0-.37.218-.622.621-.605.42 0 .572.269.588.639z"/><path fill="#18b2c7" d="M36.816 53.313c.05-.403.084-.823.571-.823.588 0 .588.487.622.907.033.37-.034.672-.521.655-.52 0-.639-.37-.672-.756z"/></svg>
